docs/assets/images/shopify.svg

<svg width="50" height="50" viewBox="0 0 50 50" fill="none" xmlns="http://www.w3.org/2000/svg">
<g clip-path="url(#clip0_913_28238)">
<path d="M37.6971 13.0439C37.6701 12.8475 37.4985 12.7385 37.3561 12.7267C37.2148 12.7148 34.4463 12.6727 34.4463 12.6727C34.4463 12.6727 32.131 10.4243 31.9022 10.1955C31.6736 9.96681 31.2269 10.0359 31.0532 10.0876C31.051 10.0887 30.6184 10.2225 29.8901 10.448C29.7682 10.0531 29.5891 9.56761 29.3334 9.07994C28.5091 7.5069 27.3018 6.67506 25.8431 6.6729C25.8409 6.6729 25.8398 6.6729 25.8377 6.6729C25.7363 6.6729 25.6359 6.68261 25.5346 6.69124C25.4914 6.63945 25.4482 6.58875 25.4029 6.53911C24.7674 5.8594 23.9529 5.52818 22.9765 5.55731C21.0927 5.61125 19.2165 6.97176 17.6952 9.38852C16.6249 11.0889 15.8103 13.2251 15.5795 14.8791C13.4162 15.5491 11.9036 16.0173 11.8702 16.0281C10.7783 16.3712 10.7438 16.4046 10.6014 17.434C10.4956 18.2118 7.63867 40.3036 7.63867 40.3036L31.5807 44.4444L41.9577 41.8647C41.9577 41.8647 37.724 13.2402 37.6971 13.0439ZM28.6914 10.8191C28.1401 10.9896 27.5132 11.1838 26.8335 11.3942C26.8195 10.4405 26.7062 9.1134 26.2617 7.96651C27.6913 8.23732 28.3947 9.8546 28.6914 10.8191ZM25.5809 11.7826C24.3262 12.171 22.957 12.595 21.5836 13.0201C21.9698 11.5409 22.7024 10.0682 23.6022 9.1026C23.9367 8.74333 24.4049 8.34305 24.9595 8.11432C25.4806 9.20186 25.5939 10.7415 25.5809 11.7826ZM23.0142 6.811C23.4565 6.80129 23.8288 6.89839 24.1471 7.1077C23.6378 7.37204 23.1458 7.75181 22.6841 8.24703C21.4875 9.53093 20.5705 11.5237 20.2047 13.4463C19.0643 13.7991 17.9487 14.1454 16.9216 14.4627C17.5701 11.4363 20.1065 6.89515 23.0142 6.811Z" fill="#95BF47"/>
<path d="M37.3569 12.7278C37.2156 12.7159 34.4471 12.6738 34.4471 12.6738C34.4471 12.6738 32.1318 10.4254 31.9031 10.1966C31.8179 10.1114 31.7024 10.0672 31.5815 10.0488L31.5826 44.4434L41.9585 41.8648C41.9585 41.8648 37.7249 13.2413 37.6979 13.045C37.6709 12.8486 37.4983 12.7396 37.3569 12.7278Z" fill="#5E8E3E"/>
<path d="M25.8301 18.063L24.625 22.5717C24.625 22.5717 23.2806 21.96 21.6871 22.0603C19.3501 22.2081 19.3253 23.6819 19.3491 24.052C19.4764 26.0684 24.7813 26.5087 25.0792 31.2321C25.3133 34.9479 23.108 37.4898 19.9306 37.6905C16.1166 37.931 14.0171 35.6815 14.0171 35.6815L14.8252 32.2441C14.8252 32.2441 16.9388 33.8388 18.6305 33.732C19.7353 33.6618 20.1302 32.7631 20.0902 32.1276C19.9241 29.4972 15.6042 29.6526 15.3312 25.3305C15.1014 21.6935 17.4901 18.0079 22.7606 17.6756C24.7911 17.5451 25.8301 18.063 25.8301 18.063Z" fill="white"/>
</g>
<defs>
<clipPath id="clip0_913_28238">
<rect width="34.3519" height="38.8889" fill="white" transform="translate(7.63867 5.55554)"/>
</clipPath>
</defs>
</svg>

<svg xmlns="http://www.w3.org/2000/svg" fill="none" viewBox="0 0 50 50"><g clip-path="url(#a)"><path fill="#95BF47" d="M37.697 13.044a.377.377 0 0 0-.34-.317c-.142-.012-2.91-.054-2.91-.054s-2.316-2.249-2.545-2.478c-.228-.228-.675-.16-.849-.107l-1.163.36a8.151 8.151 0 0 0-.557-1.368c-.824-1.573-2.031-2.405-3.49-2.407h-.005c-.102 0-.202.01-.303.018a4.507 4.507 0 0 0-.132-.152c-.636-.68-1.45-1.01-2.426-.982-1.884.054-3.76 1.415-5.282 3.832-1.07 1.7-1.885 3.836-2.116 5.49-2.163.67-3.675 1.138-3.709 1.15-1.092.342-1.126.376-1.269 1.405-.105.778-2.962 22.87-2.962 22.87l23.942 4.14 10.377-2.58s-4.234-28.624-4.26-28.82zm-9.006-2.225-1.857.575c-.014-.954-.128-2.28-.572-3.427 1.43.27 2.133 1.888 2.43 2.852zm-3.11.964-3.997 1.237c.386-1.48 1.118-2.952 2.018-3.917.335-.36.803-.76 1.357-.989.522 1.088.635 2.627.622 3.669zM23.014 6.81c.442-.01.815.087 1.133.297a5.452 5.452 0 0 0-1.463 1.139c-1.197 1.284-2.114 3.277-2.48 5.2l-3.282 1.016c.648-3.027 3.184-7.568 6.092-7.652z"/><path fill="#5E8E3E" d="M37.357 12.728c-.141-.012-2.91-.054-2.91-.054s-2.315-2.249-2.544-2.477a.566.566 0 0 0-.322-.148l.002 34.394 10.376-2.578s-4.234-28.624-4.261-28.82a.378.378 0 0 0-.341-.317z"/><path fill="#fff" d="m25.83 18.063-1.205 4.509s-1.344-.612-2.938-.512c-2.337.148-2.362 1.622-2.338 1.992.127 2.016 5.432 2.457 5.73 7.18.234 3.716-1.971 6.258-5.148 6.459-3.814.24-5.914-2.01-5.914-2.01l.808-3.437s2.114 1.595 3.806 1.488c1.104-.07 1.5-.969 1.46-1.604-.167-2.63-4.487-2.475-4.76-6.797-.23-3.637 2.16-7.323 7.43-7.655 2.03-.13 3.07.387 3.07.387z"/></g><defs><clipPath id="a"><path fill="#fff" d="M0 0H34.352V38.889H0z" transform="translate(7.639 5.556)"/></clipPath></defs></svg>
